X: 1
T: Miss Heather Frances Cassidy's Birthday Waltz
C: Alistair Cassidy
M: 3/4
L: 1/8
R: Waltz
K: A Major
|: EF |
A4 B/A/G | A2 a4 | g2 e3 e | fa- a4 |
e4 cB | A2 AB c/B/A |1 B2 Bc BA | F4 :|2 B3 A G2 | A4 ||
cd |
e4 fg | a4 e2 | f3 a a/g/f |e2 c3 e |
f2 fg af | ec- c2 cA | B3 c BA | F4 EF |
A2 AB c>B | ca- a4 | g4 fe | f2 a4 |
e4 cB | A3 B cA | B2 B>c B/A/G | A4 ||
